X: 1
T: Rose of Allandale
R: air
C: RSCDS Leaflet 32
N: arr. T. Traub 2001-12-20
N: based on an arrangement by Muriel Johnstone
M: 4/4
L: 1/4
K: C
G |\
"C"e e/d/ c> B | "F"d/c/B/A/ "C"G> G |\
"C"G c "D7"c d/e/ | "G"d3 "G7"G |\
"C"e "E7"e/d/ "Am"c> B | "F" d/c/B/A/ "C"G> G |\
"F"A/ c A/ "G7"B/c/d/e/ | "C"c3 ||
G |\
"G"d d/B/ G G | "C"e e/c/ G> G |\
"Dm"f "G7"f/d/ "C"e "D7"e/c/ | "G"d3 G |\
"C"e "E7"e/d/ "Am"c> B | "F"d/c/B/A/ "C"G> G |\
"F"A/ c A/ "G7"B/c/d/e/ | "C F C"c3 ||
|: "G7"g |\
"C"g> e e "E7"c | "F"B A2 "A7"A |\
"Dm"f> e "D7"d c | "G"B G2 "E7"^G |\
"F"A> B "D7" d/c/B/A/ | "C"G c "C#dim"e> G |\
"Dm7"A/ c A/ "G7"B/c/d/e/ | "C F C"c3 :|
